X: 1
T: John Morrison Of Assynt House
M: 4/4
L: 1/8
R: reel
K: Amix
AAAB AAAB | e2 e2 dBBd | GGGB GGGB | d2 ed BGGB | 
A2 A2 GAAB | e2 e2 dBBd | egBd e2 ae | g2 Bd eA A2 |
 A2 ag a2 eg | a2 ga geef | g2 ae g2 Bd | g2 ag fddf |
egBd e2 ge | a2 ga geeg | dBBd e2 ae | g2 Bd eA A2 | 
A2 ed e2 AB | e2 e2 dBBd | GGdB d2 GB | e2 dA BGGB |
A2 ed e2 AB | e2 e2 dBBd | egBd e2 ae | g2 Bd eA A2 |
Aaag aged | eaag a2 ge | dgga gedB | dgga g2 ed | 
eaag aged | eaag a2 ge | dBBd e2 ae | g2 Bd eA A2 | 
eAed eAAB | eAed BAAB | dGdB dGGB | eAdA BGGB |
eAed eAAB | e2 e2 dBBd | egBd e2 ae | g2 Bd eA A2 |
a2 eg aeeg | a2 ea geae | g2 de gdde | g2 dg edgd |
a2 eg aeeg | a2 ea afge | dBBd e2 ae | g2 Bd eA A2 |
